src/assets/icons/mainLogo.svg

<svg width="32" height="31" viewBox="0 0 32 31" fill="none" xmlns="http://www.w3.org/2000/svg">
<path d="M19.9974 1.62896L27.3741 14.3766C27.7764 15.0719 27.7764 15.9285 27.3741 16.6238L19.9974 29.3714C19.5951 30.0667 18.8516 30.495 18.0469 30.495H22.3698C23.1745 30.495 23.918 30.0667 24.3203 29.3714L31.697 16.6238C32.0993 15.9285 32.0993 15.0719 31.697 14.3766L24.3203 1.62896C23.918 0.93366 23.1744 0.505371 22.3698 0.505371H18.0469C18.8516 0.505371 19.5951 0.93366 19.9974 1.62896Z" fill="#39435A"/>
<path d="M19.9974 1.62896L20.3261 2.19697C20.8848 2.20512 21.465 2.25091 22.0572 2.33777C23.2357 2.51074 24.3221 2.826 25.2503 3.23638L24.3201 1.62896C23.918 0.93366 23.1745 0.505371 22.3698 0.505371H18.0469C18.8516 0.505371 19.5951 0.93366 19.9974 1.62896Z" fill="#2C374C"/>
<path d="M11.6771 1.62896L19.0538 14.3766C19.4561 15.0719 19.4561 15.9285 19.0538 16.6238L11.6771 29.3714C11.2748 30.0667 10.5313 30.495 9.72656 30.495H14.0495C14.8542 30.495 15.5977 30.0667 16 29.3714L23.3767 16.6238C23.779 15.9285 23.779 15.0719 23.3767 14.3766L16 1.62896C15.5976 0.93366 14.8541 0.505371 14.0494 0.505371H9.72656C10.5312 0.505371 11.2747 0.93366 11.6771 1.62896Z" fill="#39435A"/>
<path d="M12.0014 29.3712L4.62463 16.6235C4.22234 15.9282 4.22234 15.0717 4.62463 14.3764L12.0014 1.62871C12.4036 0.933416 13.1472 0.505127 13.9519 0.505127H9.62897C8.82427 0.505127 8.08073 0.933416 7.67844 1.62871L0.30172 14.3764C-0.100573 15.0717 -0.100573 15.9282 0.30172 16.6235L7.67844 29.3712C8.08073 30.0665 8.82427 30.4948 9.62897 30.4948H13.9519C13.1472 30.4948 12.4036 30.0665 12.0014 29.3712Z" fill="#435F94"/>
<path d="M16.2631 29.3712L8.88635 16.6236C8.48406 15.9283 8.48406 15.0717 8.88635 14.3764L16.2631 1.62874C16.6654 0.93366 17.4089 0.505371 18.2136 0.505371H13.8907C13.086 0.505371 12.3425 0.93366 11.9402 1.62896L4.56344 14.3766C4.16115 15.0719 4.16115 15.9285 4.56344 16.6238L11.9402 29.3714C12.3425 30.0667 13.086 30.495 13.8907 30.495H18.2136C17.4089 30.4948 16.6654 30.0665 16.2631 29.3712Z" fill="#377DFF"/>
<path d="M20.6068 29.3712L13.2301 16.6236C12.8278 15.9283 12.8278 15.0717 13.2301 14.3764L20.6068 1.62874C21.0091 0.93366 21.7527 0.505371 22.5574 0.505371H18.2344C17.4297 0.505371 16.6862 0.93366 16.2839 1.62896L8.90719 14.3766C8.5049 15.0719 8.5049 15.9285 8.90719 16.6238L16.2839 29.3714C16.6862 30.0667 17.4297 30.495 18.2344 30.495H22.5574C21.7527 30.4948 21.0091 30.0665 20.6068 29.3712Z" fill="#37DBFF"/>
</svg>

<svg width="32" height="31" fill="none" xmlns="http://www.w3.org/2000/svg"><path d="m19.997 1.629 7.377 12.748a2.243 2.243 0 0 1 0 2.247L19.997 29.37a2.253 2.253 0 0 1-1.95 1.124h4.323c.804 0 1.548-.428 1.95-1.124l7.377-12.747a2.243 2.243 0 0 0 0-2.247L24.32 1.629A2.253 2.253 0 0 0 22.37.505h-4.323c.805 0 1.548.429 1.95 1.124Z" fill="#39435A"/><path d="m19.997 1.629.33.568c.558.008 1.138.054 1.73.14 1.179.174 2.265.489 3.193.9l-.93-1.608A2.252 2.252 0 0 0 22.37.505h-4.323c.805 0 1.548.429 1.95 1.124Z" fill="#2C374C"/><path d="m11.677 1.629 7.377 12.748a2.243 2.243 0 0 1 0 2.247L11.677 29.37a2.253 2.253 0 0 1-1.95 1.124h4.322c.805 0 1.549-.428 1.951-1.124l7.377-12.747a2.243 2.243 0 0 0 0-2.247L16 1.629A2.253 2.253 0 0 0 14.05.505H9.726c.804 0 1.548.429 1.95 1.124Z" fill="#39435A"/><path d="M12.001 29.371 4.625 16.624a2.243 2.243 0 0 1 0-2.248L12 1.63a2.253 2.253 0 0 1 1.95-1.124H9.63c-.805 0-1.548.428-1.95 1.124L.301 14.376a2.243 2.243 0 0 0 0 2.248L7.678 29.37a2.253 2.253 0 0 0 1.951 1.124h4.323a2.253 2.253 0 0 1-1.95-1.124Z" fill="#435F94"/><path d="M16.263 29.371 8.886 16.624a2.243 2.243 0 0 1 0-2.248L16.263 1.63a2.253 2.253 0 0 1 1.95-1.124h-4.322c-.805 0-1.549.429-1.95 1.124L4.562 14.377a2.243 2.243 0 0 0 0 2.247L11.94 29.37a2.253 2.253 0 0 0 1.95 1.124h4.324a2.254 2.254 0 0 1-1.95-1.124Z" fill="#377DFF"/><path d="M20.607 29.371 13.23 16.624a2.243 2.243 0 0 1 0-2.248L20.607 1.63a2.253 2.253 0 0 1 1.95-1.124h-4.323c-.804 0-1.548.429-1.95 1.124L8.907 14.377a2.243 2.243 0 0 0 0 2.247l7.377 12.747a2.253 2.253 0 0 0 1.95 1.124h4.323a2.254 2.254 0 0 1-1.95-1.124Z" fill="#37DBFF"/></svg>
